src/icons/change.svg

<svg width="800" height="800" viewBox="0 0 52 52" xmlns="http://www.w3.org/2000/svg"><path d="M20 37.5c0-.8-.7-1.5-1.5-1.5h-15c-.8 0-1.5.7-1.5 1.5v11c0 .8.7 1.5 1.5 1.5h15c.8 0 1.5-.7 1.5-1.5zM8.1 22H3.2c-1 0-1.5.9-.9 1.4l8 8.3c.4.3 1 .3 1.4 0l8-8.3c.6-.6.1-1.4-.9-1.4h-4.7c0-5 4.9-10 9.9-10V6C15 6 8.1 13 8.1 22zM41.8 20.3c-.4-.3-1-.3-1.4 0l-8 8.3c-.6.6-.1 1.4.9 1.4h4.8c0 6-4.1 10-10.1 10v6c9 0 16.1-7 16.1-16H49c1 0 1.5-.9.9-1.4zM50 3.5c0-.8-.7-1.5-1.5-1.5h-15c-.8 0-1.5.7-1.5 1.5v11c0 .8.7 1.5 1.5 1.5h15c.8 0 1.5-.7 1.5-1.5z" fill="#fff" stroke="#000" stroke-width="2.209" stroke-linejoin="round"/></svg>

<?xml version="1.0" encoding="UTF-8" standalone="no"?>
<!-- Uploaded to: SVG Repo, www.svgrepo.com, Generator: SVG Repo Mixer Tools -->

<svg
   fill="#000000"
   width="800"
   height="800"
   viewBox="0 0 52 52"
   enable-background="new 0 0 52 52"
   xml:space="preserve"
   version="1.1"
   id="svg4"
   xmlns="http://www.w3.org/2000/svg"
   xmlns:svg="http://www.w3.org/2000/svg"><defs
   id="defs4" />
<path
   d="M 20,37.5 C 20,36.7 19.3,36 18.5,36 H 3.5 C 2.7,36 2,36.7 2,37.5 v 11 C 2,49.3 2.7,50 3.5,50 h 15 c 0.8,0 1.5,-0.7 1.5,-1.5 z"
   id="path1"
   style="fill:#ffffff;fill-opacity:1;stroke:#000000;stroke-width:2.20903;stroke-linejoin:round;stroke-dasharray:none;stroke-opacity:1" />
<path
   d="M 8.1,22 H 3.2 c -1,0 -1.5,0.9 -0.9,1.4 l 8,8.3 c 0.4,0.3 1,0.3 1.4,0 l 8,-8.3 C 20.3,22.8 19.8,22 18.8,22 H 14.1 C 14.1,17 19,12 24,12 V 6 C 15,6 8.1,13 8.1,22 Z"
   id="path2"
   style="fill:#ffffff;fill-opacity:1;stroke:#000000;stroke-width:2.20903;stroke-linejoin:round;stroke-dasharray:none;stroke-opacity:1" />
<path
   d="m 41.8,20.3 c -0.4,-0.3 -1,-0.3 -1.4,0 l -8,8.3 c -0.6,0.6 -0.1,1.4 0.9,1.4 h 4.8 C 38.1,36 34,40 28,40 v 6 c 9,0 16.1,-7 16.1,-16 H 49 c 1,0 1.5,-0.9 0.9,-1.4 z"
   id="path3"
   style="fill:#ffffff;fill-opacity:1;stroke:#000000;stroke-width:2.20903;stroke-linejoin:round;stroke-dasharray:none;stroke-opacity:1" />
<path
   d="M 50,3.5 C 50,2.7 49.3,2 48.5,2 h -15 C 32.7,2 32,2.7 32,3.5 v 11 c 0,0.8 0.7,1.5 1.5,1.5 h 15 c 0.8,0 1.5,-0.7 1.5,-1.5 z"
   id="path4"
   style="fill:#ffffff;fill-opacity:1;stroke:#000000;stroke-width:2.20903;stroke-linejoin:round;stroke-dasharray:none;stroke-opacity:1" />
</svg>
